Obsidian/actions/16s/mail-mark-notjunk-symbolic.svg

<svg height="16" width="16" xmlns="http://www.w3.org/2000/svg"><g fill="#bebebe"><path d="m5.1 0a1 1 0 0 0 -.707.293l-4.1 4.1a1 1 0 0 0 -.293.707v5.8a1 1 0 0 0 .293.707l4.1 4.1a1 1 0 0 0 .707.293h3.894a1 1 0 1 0 0-2h-3.478l-3.516-3.516v-4.968l3.516-3.516h4.968l3.516 3.514-.006 3.484a1 1 0 1 0 2 .004l.006-3.9a1 1 0 0 0 -.293-.71l-4.1-4.099a1 1 0 0 0 -.707-.293z" opacity=".35"/><path d="m6.994 4h2v3l-.25 2h-1.469l-.28-2zm1 5.75a1.25 1.25 0 1 1 0 2.5 1.25 1.25 0 0 1 0-2.5z" opacity=".35"/><path d="m10.994 11h1.375l1.125 1.094 1.094-1.094h1.406v1.469l-1.094 1.061 1.094 1.063v1.407h-1.437l-1.063-1.063-1.062 1.063h-1.438v-1.406l1.063-1.063-1.063-1.062z"/></g></svg>

<?xml version="1.0" encoding="UTF-8" standalone="no"?>
<svg
   xmlns:dc="http://purl.org/dc/elements/1.1/"
   xmlns:cc="http://creativecommons.org/ns#"
   xmlns:rdf="http://www.w3.org/1999/02/22-rdf-syntax-ns#"
   xmlns:svg="http://www.w3.org/2000/svg"
   xmlns="http://www.w3.org/2000/svg"
   xmlns:sodipodi="http://sodipodi.sourceforge.net/DTD/sodipodi-0.dtd"
   xmlns:inkscape="http://www.inkscape.org/namespaces/inkscape"
   width="16"
   height="16"
   version="1.1"
   id="svg10"
   sodipodi:docname="mail-mark-notjunk-symbolic.svg"
   inkscape:version="0.92.4 (unknown)">
  <metadata
     id="metadata16">
    <rdf:RDF>
      <cc:Work
         rdf:about="">
        <dc:format>image/svg+xml</dc:format>
        <dc:type
           rdf:resource="http://purl.org/dc/dcmitype/StillImage" />
      </cc:Work>
    </rdf:RDF>
  </metadata>
  <defs
     id="defs14" />
  <sodipodi:namedview
     pagecolor="#ffffff"
     bordercolor="#666666"
     borderopacity="1"
     objecttolerance="10"
     gridtolerance="10"
     guidetolerance="10"
     inkscape:pageopacity="0"
     inkscape:pageshadow="2"
     inkscape:window-width="1920"
     inkscape:window-height="1010"
     id="namedview12"
     showgrid="false"
     inkscape:zoom="14.75"
     inkscape:cx="0.13559322"
     inkscape:cy="8"
     inkscape:window-x="0"
     inkscape:window-y="32"
     inkscape:window-maximized="1"
     inkscape:current-layer="svg10" />
  <g
     fill="#2e3436"
     id="g8"
     style="fill:#bebebe;fill-opacity:1">
    <path
       d="M5.1 0a1 1 0 0 0-.707.293l-4.1 4.1A1 1 0 0 0 0 5.1v5.8a1 1 0 0 0 .293.707l4.1 4.1A1 1 0 0 0 5.1 16h3.894a1 1 0 1 0 0-2H5.516L2 10.484V5.516L5.516 2h4.968L14 5.514l-.006 3.484a1 1 0 1 0 2 .004l.006-3.9a1 1 0 0 0-.293-.71l-4.1-4.099A1 1 0 0 0 10.9 0z"
       style="line-height:normal;font-variant-ligatures:normal;font-variant-position:normal;font-variant-caps:normal;font-variant-numeric:normal;font-variant-alternates:normal;font-feature-settings:normal;text-indent:0;text-align:start;text-decoration-line:none;text-decoration-style:solid;text-decoration-color:#000;text-transform:none;text-orientation:mixed;shape-padding:0;isolation:auto;mix-blend-mode:normal;fill:#bebebe;fill-opacity:1"
       color="#000"
       font-weight="400"
       font-family="sans-serif"
       white-space="normal"
       overflow="visible"
       opacity=".35"
       id="path2" />
    <path
       d="M6.994 4h2v3l-.25 2H7.275l-.28-2zm1 5.75a1.25 1.25 0 1 1 0 2.5 1.25 1.25 0 0 1 0-2.5z"
       style="line-height:normal;-inkscape-font-specification:Sans;text-indent:0;text-align:start;text-decoration-line:none;text-transform:none;marker:none;fill:#bebebe;fill-opacity:1"
       color="#000"
       font-weight="400"
       font-family="Sans"
       overflow="visible"
       opacity=".35"
       id="path4" />
    <path
       d="M10.994 11h1.375l1.125 1.094L14.588 11h1.406v1.469L14.9 13.53l1.094 1.063V16h-1.437l-1.063-1.063L12.432 16h-1.438v-1.406l1.063-1.063-1.063-1.062z"
       style="marker:none;fill:#bebebe;fill-opacity:1"
       color="#bebebe"
       overflow="visible"
       id="path6" />
  </g>
</svg>
